Numix/22x22/categories/applications-chat.svg

<?xml version="1.0" encoding="UTF-8" standalone="no"?>
<svg
   xmlns:dc="http://purl.org/dc/elements/1.1/"
   xmlns:cc="http://creativecommons.org/ns#"
   xmlns:rdf="http://www.w3.org/1999/02/22-rdf-syntax-ns#"
   xmlns:svg="http://www.w3.org/2000/svg"
   xmlns="http://www.w3.org/2000/svg"
   xmlns:sodipodi="http://sodipodi.sourceforge.net/DTD/sodipodi-0.dtd"
   xmlns:inkscape="http://www.inkscape.org/namespaces/inkscape"
   width="22"
   height="22"
   viewBox="0 0 22 22"
   id="svg2"
   version="1.1"
   inkscape:version="0.91 r"
   sodipodi:docname="applications-chat.svg">
  <metadata
     id="metadata14">
    <rdf:RDF>
      <cc:Work
         rdf:about="">
        <dc:format>image/svg+xml</dc:format>
        <dc:type
           rdf:resource="http://purl.org/dc/dcmitype/StillImage" />
      </cc:Work>
    </rdf:RDF>
  </metadata>
  <defs
     id="defs12" />
  <sodipodi:namedview
     pagecolor="#ffffff"
     bordercolor="#666666"
     borderopacity="1"
     objecttolerance="10"
     gridtolerance="10"
     guidetolerance="10"
     inkscape:pageopacity="0"
     inkscape:pageshadow="2"
     inkscape:window-width="1920"
     inkscape:window-height="1056"
     id="namedview10"
     showgrid="false"
     inkscape:zoom="10.727273"
     inkscape:cx="11"
     inkscape:cy="11"
     inkscape:window-x="0"
     inkscape:window-y="24"
     inkscape:window-maximized="1"
     inkscape:current-layer="svg2" />
  <g
     style="fill:#8ccd7c"
     id="g4"
     transform="translate(0.1132815,0.11522511)">
    <path
       d="m 6.378906,6.898438 c -2.207031,0 -3.996094,1.800781 -3.996094,4.019531 0,0.140625 0,0.277343 0.015626,0.410156 0.03125,0.863281 -0.015626,2.105469 0.984374,5.125 0.847657,2.566406 1.5,2.511719 1.5,2.511719 l 0.996094,-0.503906 c 0,0 -0.5,-1.003907 -0.5,-2.007813 0,-0.484375 0.117188,-1.082031 0.234375,-1.574219 0.246094,0.04687 0.507813,0.0625 0.765625,0.0625 2.207032,0 4,-1.800781 4,-4.023437 0,-2.21875 -1.792968,-4.019531 -4,-4.019531 z"
       id="path6"
       inkscape:connector-curvature="0" />
    <path
       d="m 15.390625,14.875 c 2.207031,0 4,-1.804688 4,-4.023438 0,-0.136718 -0.0039,-0.273437 -0.01563,-0.410156 -0.03516,-0.859375 0.01563,-2.105468 -0.984375,-5.121094 -0.851563,-2.566406 -1.5,-2.515624 -1.5,-2.515624 l -1,0.503906 c 0,0 0.5,1.007812 0.5,2.011718 0,0.484376 -0.113281,1.078126 -0.234375,1.570313 -0.246094,-0.046875 -0.507812,-0.0625 -0.765625,-0.0625 -2.207031,0 -3.996094,1.800781 -3.996094,4.023437 0,2.21875 1.789063,4.023438 3.996094,4.023438 z"
       id="path8"
       inkscape:connector-curvature="0" />
  </g>
</svg>

<svg width="22" xmlns="http://www.w3.org/2000/svg" height="22" viewBox="0 0 22 22" xmlns:xlink="http://www.w3.org/1999/xlink">
<g style="fill:#8ccd7c">
<path d="M 6.378906 6.898438 C 4.171875 6.898438 2.382812 8.699219 2.382812 10.917969 C 2.382812 11.058594 2.382812 11.195312 2.398438 11.328125 C 2.429688 12.191406 2.382812 13.433594 3.382812 16.453125 C 4.230469 19.019531 4.882812 18.964844 4.882812 18.964844 L 5.878906 18.460938 C 5.878906 18.460938 5.378906 17.457031 5.378906 16.453125 C 5.378906 15.96875 5.496094 15.371094 5.613281 14.878906 C 5.859375 14.925781 6.121094 14.941406 6.378906 14.941406 C 8.585938 14.941406 10.378906 13.140625 10.378906 10.917969 C 10.378906 8.699219 8.585938 6.898438 6.378906 6.898438 Z "/>
<path d="M 15.390625 14.875 C 17.597656 14.875 19.390625 13.070312 19.390625 10.851562 C 19.390625 10.714844 19.386719 10.578125 19.375 10.441406 C 19.339844 9.582031 19.390625 8.335938 18.390625 5.320312 C 17.539062 2.753906 16.890625 2.804688 16.890625 2.804688 L 15.890625 3.308594 C 15.890625 3.308594 16.390625 4.316406 16.390625 5.320312 C 16.390625 5.804688 16.277344 6.398438 16.15625 6.890625 C 15.910156 6.84375 15.648438 6.828125 15.390625 6.828125 C 13.183594 6.828125 11.394531 8.628906 11.394531 10.851562 C 11.394531 13.070312 13.183594 14.875 15.390625 14.875 Z "/>
</g>
</svg>
